vendor/shopware/storefront/Resources/app/storefront/dist/assets/icon/default/arrow-head-down.svg

<svg xmlns="http://www.w3.org/2000/svg" xmlns:xlink="http://www.w3.org/1999/xlink" width="24" height="24" viewBox="0 0 24 24">
  <defs>
    <path id="icons-default-arrow-head-down-a" d="M12,7.41421356 L22.2928932,17.7071068 C22.6834175,18.0976311 23.3165825,18.0976311 23.7071068,17.7071068 C24.0976311,17.3165825 24.0976311,16.6834175 23.7071068,16.2928932 L12.7071068,5.29289322 C12.3165825,4.90236893 11.6834175,4.90236893 11.2928932,5.29289322 L0.292893219,16.2928932 C-0.0976310729,16.6834175 -0.0976310729,17.3165825 0.292893219,17.7071068 C0.683417511,18.0976311 1.31658249,18.0976311 1.70710678,17.7071068 L12,7.41421356 Z"/>
  </defs>
  <use fill="#758CA3" fill-rule="evenodd" transform="matrix(1 0 0 -1 0 23)" xlink:href="#icons-default-arrow-head-down-a"/>
</svg>

<svg xmlns="http://www.w3.org/2000/svg" xmlns:xlink="http://www.w3.org/1999/xlink" width="24" height="24" viewBox="0 0 24 24"><defs><path id="icons-default-arrow-head-down-a" d="m12 7.4142 10.2929 10.293c.3905.3904 1.0237.3904 1.4142 0 .3905-.3906.3905-1.0238 0-1.4143l-11-11c-.3905-.3905-1.0237-.3905-1.4142 0l-11 11c-.3905.3905-.3905 1.0237 0 1.4142.3905.3905 1.0237.3905 1.4142 0L12 7.4142z"/></defs><use fill="#758CA3" fill-rule="evenodd" transform="matrix(1 0 0 -1 0 23)" xlink:href="#icons-default-arrow-head-down-a"/></svg>
